img/svg/twitter-icon.svg

<svg width="48" height="48" viewBox="0 0 48 48" fill="none" xmlns="http://www.w3.org/2000/svg">
<path d="M34.46 18.0002C33.69 18.3502 32.86 18.5802 32 18.6902C32.88 18.1602 33.56 17.3202 33.88 16.3102C33.05 16.8102 32.13 17.1602 31.16 17.3602C30.37 16.5002 29.26 16.0002 28 16.0002C25.65 16.0002 23.73 17.9202 23.73 20.2902C23.73 20.6302 23.77 20.9602 23.84 21.2702C20.28 21.0902 17.11 19.3802 15 16.7902C14.63 17.4202 14.42 18.1602 14.42 18.9402C14.42 20.4302 15.17 21.7502 16.33 22.5002C15.62 22.5002 14.96 22.3002 14.38 22.0002V22.0302C14.38 24.1102 15.86 25.8502 17.82 26.2402C17.1907 26.4125 16.5301 26.4364 15.89 26.3102C16.1616 27.1627 16.6935 27.9087 17.411 28.4432C18.1285 28.9777 18.9954 29.2739 19.89 29.2902C18.3736 30.4907 16.494 31.1396 14.56 31.1302C14.22 31.1302 13.88 31.1102 13.54 31.0702C15.44 32.2902 17.7 33.0002 20.12 33.0002C28 33.0002 32.33 26.4602 32.33 20.7902C32.33 20.6002 32.33 20.4202 32.32 20.2302C33.16 19.6302 33.88 18.8702 34.46 18.0002Z" fill="#072125"/>
<path d="M24 47.0002C11.2975 47.0002 1 36.7028 1 24.0002H-1C-1 37.8074 10.1929 49.0002 24 49.0002V47.0002ZM47 24.0002C47 36.7028 36.7025 47.0002 24 47.0002V49.0002C37.8071 49.0002 49 37.8074 49 24.0002H47ZM24 1.00024C36.7025 1.00024 47 11.2977 47 24.0002H49C49 10.1931 37.8071 -0.999756 24 -0.999756V1.00024ZM24 -0.999756C10.1929 -0.999756 -1 10.1931 -1 24.0002H1C1 11.2977 11.2975 1.00024 24 1.00024V-0.999756Z" fill="#20484F" fill-opacity="0.1"/>
</svg>

<svg width="48" height="48" fill="none" xmlns="http://www.w3.org/2000/svg"><path d="M34.46 18c-.77.35-1.6.58-2.46.69.88-.53 1.56-1.37 1.88-2.38-.83.5-1.75.85-2.72 1.05C30.37 16.5 29.26 16 28 16c-2.35 0-4.27 1.92-4.27 4.29 0 .34.04.67.11.98-3.56-.18-6.73-1.89-8.84-4.48-.37.63-.58 1.37-.58 2.15 0 1.49.75 2.81 1.91 3.56-.71 0-1.37-.2-1.95-.5v.03c0 2.08 1.48 3.82 3.44 4.21-.63.173-1.29.196-1.93.07a4.28 4.28 0 0 0 4 2.98 8.52 8.52 0 0 1-5.33 1.84c-.34 0-.68-.02-1.02-.06 1.9 1.22 4.16 1.93 6.58 1.93 7.88 0 12.21-6.54 12.21-12.21 0-.19 0-.37-.01-.56.84-.6 1.56-1.36 2.14-2.23Z" fill="#072125"/><path d="M24 47C11.297 47 1 36.703 1 24h-2c0 13.807 11.193 25 25 25v-2Zm23-23c0 12.703-10.297 23-23 23v2c13.807 0 25-11.193 25-25h-2ZM24 1c12.703 0 23 10.298 23 23h2C49 10.193 37.807-1 24-1v2Zm0-2C10.193-1-1 10.193-1 24h2C1 11.298 11.297 1 24 1v-2Z" fill="#20484F" fill-opacity=".1"/></svg>
